static/skills/ux.svg

<svg xmlns="http://www.w3.org/2000/svg" width="512" height="512" viewBox="-1 -1 60 60">
    <g fill-rule="nonzero" fill="none">
        <path d="M54.79 25.57c-.1333333.28-.2633333.58-.39.9l-4.69 11.32L44.28 30l2.73-6.6c.12-.3.24-.59.34-.86l7.44 3.03Z" fill="#E64C3C"/>
        <path d="M39.72 22.09c-.1 2-.31 4-.61 6l-6.98 1.13a49.35900427 49.35900427 0 0 1 .14-7.59v-.01l7.45.47Z" fill="#4482C3"/>
        <path d="M22.79 9.85s.88 7.783-2.04 8.462C17.83 18.991 15 11.68 15 11.68l.19-5.12c.83.3.922-3.132 1.852-3.352.93-.22 2.698 2.782 3.308 2.142l2.44 4.5Z" fill="#FDD7AD"/>
        <path d="M28.05 32.34 26 39l-.56-.48L20.23 34 15 11.68s1.66 2.69 4.58 2 3.21-3.83 3.21-3.83l5.26 22.49Z" fill="#E64C3C"/>
        <path d="M25.44 38.52 20.23 34 15 11.68s1.66 2.69 4.58 2l5.86 24.84Z" fill="#C03A2B"/>
        <path d="M16.08 34.57 16 47l-7.89-2.92L.13 24.83c-.10264105-.2452731-.10337829-.5213244-.00204878-.7671422C.22928072 23.8170399.42433352 23.621696.67 23.52l8.32-3.44c.51086414-.2090364 1.0948377.0316856 1.31.54l.76 1.85.38.92.38.92.77 1.85.38.92.39.93.76 1.85.38.92.38.92 1.16 2.78.04.09Z" fill="#F0C419"/>
        <path d="m11.82 24.31-4.61 1.92c-.12452091.0473646-.25677971.0711034-.39.07-.47298523-.0055608-.87737889-.341763-.96921562-.8057802C5.75894764 25.0302026 6.00479082 24.5653077 6.44 24.38l4.62-1.91.38.92.38.92ZM13.36 28.01l-2.78 1.15c-.1208103.0481669-.2499563.071957-.38.07-.47298523-.0055608-.87737889-.341763-.96921562-.8057802C9.13894764 27.9602026 9.38479082 27.4953077 9.82 27.31l2.77-1.15.38.92.39.93ZM14.88 31.7l-4.61 1.92c-.1212958.0464617-.2501103.0701906-.38.07-.47483245-.0009089-.88355298-.3356076-.97807326-.8009382C8.81740645 32.4237311 9.06315247 31.9560939 9.5 31.77l4.62-1.91.38.92.38.92Z" fill="#B19046"/>
        <path d="M58 51c0 1.8565154-.7374979 3.6369928-2.0502525 4.9497475C54.6369928 57.2625021 52.8565154 58 51 58H7c-3.86599325 0-7-3.1340068-7-7s3.13400675-7 7-7c.67727824-.001899 1.35115423.095813 2 .29.07821851-3.9392744 2.3551884-7.5032155 5.8968071-9.2297546C18.4384259 33.3337063 22.6485418 33.735193 25.8 36.1c2.126459-5.6544479 7.9924343-8.9790345 13.936068-7.8983739C45.6797017 29.2822868 50 34.4589232 50 40.5c.0025891 1.2440547-.1828377 2.4813577-.55 3.67A7.21699825 7.21699825 0 0 1 51 44c1.8565154 0 3.6369928.7374979 4.9497475 2.0502525C57.2625021 47.3630072 58 49.1434846 58 51Z" fill="#E6E7E8" stroke="#BDC3C7" stroke-width="2"/>
        <path d="M20.35 5.35c-.6306138.7203034-1.4523147 1.24730149-2.37 1.52-.9406487.16104676-1.9076456.05360266-2.79-.31l.19-5.28c.0199694-.58779203.4286577-1.09047866 1-1.23a1.42799998 1.42799998 0 0 1 .29-.03c.4842737-.00133232.9300262.26381358 1.16.69l2.52 4.64Z" fill="#2C2F38"/>
        <path d="M39.72 22.09c-2.4931181.1258217-4.9924611-.031855-7.45-.47.15-1.63.37-3.24.63-4.85 2.25.14 4.52.28 6.83.42a44.50001465 44.50001465 0 0 1-.01 4.9Z" fill="#95A5A5"/>
        <path d="M32.9 16.77s-4.022-3.647-.375-7.67c3.032-3.344 4.237-5.627 4.16-7.791-.0081272-.20275619.108562-.3898597.2942186-.47176054C37.1648752.75533863 37.3817325.79530096 37.526.938c2.463 2.411 8.019 9.141 2.145 16.25" fill="#805333"/>
        <path d="M37.685 14.7c-.3787721 0-.7250352-.2140024-.8944272-.5527864S36.6577368 13.4030176 36.885 13.1c.8762783-1.2008674 1.2346669-2.7028579.995-4.17-.1015489-.34829307-.0064948-.72426686.2483835-.98244764.2548782-.25818078.6295972-.35806705.9791687-.26101029.3495714.09705676.6191572.375831.7044478.72845793.4009189 2.0623188-.081551 4.1982456-1.33 5.888-.1888447.249833-.4838247.3967678-.797.397Z" fill="#603E26"/>
        <path d="M24.78 52c-.4007992.0000139-.7628867-.2392787-.92-.608-.323614-.7559296-.4903172-1.5697133-.49-2.392-.0016548-2.810518 1.9478303-5.245569 4.6906066-5.8589142C30.8033828 42.5277405 33.604374 43.9004803 34.8 46.444c.2352733.4998177.0208176 1.0957266-.479 1.3309999-.4998177.2352733-1.0957267.0208178-1.331-.4789999-.652302-1.4087442-2.0675987-2.306402-3.62-2.296-2.209139 0-4 1.790861-4 4-.0002415.5528385.1120372 1.0999423.33 1.608.1039737.2439982.1067566.5193072.0077364.7653573-.0990202.2460502-.2917315.4426846-.5357364.5466427-.1238521.0530935-.2572478.0803171-.392.08Z" fill="#BDC3C7"/>
        <path d="M40 49.33c-.3917318.00007-.7474313-.228594-.91-.585-.4891364-1.0620268-1.5507474-1.743097-2.72-1.745-.6750563-.0015018-1.3301935.2286433-1.856.652-.4318867.3443495-1.0611505.2733867-1.4055-.1585-.3443495-.4318867-.2733867-1.0611505.1585-1.4055.8791855-.7073719 1.9745806-1.0914486 3.103-1.088 1.9527138.0017705 3.7257188 1.1401647 4.54 2.915.1412095.3095793.1153118.6697181-.0687395.9559078S40.3402638 49.3300608 40 49.33ZM14 44c-.5522847 0-1-.4477153-1-1 0-3.678 3.533-4.9 3.684-4.949.5246705-.1761788 1.0928211.1063295 1.2689999.631.1761789.5246705-.1063294 1.0928211-.6309999 1.269-1.3212322.4506623-2.2387937 1.6555052-2.322 3.049 0 .5522847-.4477153 1-1 1ZM31 37a.9760014.9760014 0 0 1-.244-.03c-.5357071-.1342174-.8611901-.677286-.727-1.213.6715774-2.7624591 3.1283242-4.7197099 5.971-4.757.5522847-.0013807 1.0011193.4452153 1.0025.9975.0013807.5522847-.4452153 1.0011193-.9975 1.0025-1.9222671.04782-3.5748292 1.376013-4.035 3.243-.1114591.4449311-.5113206.7569879-.97.757Z" fill="#BDC3C7"/>
        <path d="M57.94 20.11c.0325197.1605106-.011876.3269944-.12.45-1.2784853 1.4921213-2.302214 3.1848211-3.03 5.01-.3534073.2634741-.7539313.4569476-1.18.57-1.0919548.288694-2.249953.193371-3.28-.27-.01 0-.01-.01-.02-.01-1.0662622-.3978779-1.960776-1.1545022-2.53-2.14-.212557-.3645423-.3581843-.7641706-.43-1.18.7765753-1.8212487 1.2527524-3.7563513 1.41-5.73.0080462-.1650872.0981212-.3152123.24-.4l5.61-3.5 1.45-.91.39 1.67 1.49 6.44Z" fill="#F0C419"/>
        <path d="m56.06 12-3.05 7.39H53l-2.67 6.48c-.01 0-.01-.01-.02-.01-1.0662622-.3978779-1.960776-1.1545022-2.53-2.14-.212557-.3645423-.3581843-.7641706-.43-1.18.7765753-1.8212487 1.2527524-3.7563513 1.41-5.73.0080462-.1650872.0981212-.3152123.24-.4l5.61-3.5 1.45-.91Z" fill="#F3D55B"/>
        <path d="m56.45 13.67-2.15 5.18c-.1534036.3734255-.5162981.6179849-.92.62-.1274636-.0014658-.2533163-.0286772-.37-.08H53c-.3748601-.1516384-.6201595-.515631-.62-.92.0024296-.1338165.0295511-.2660336.08-.39l2.15-5.17 1.45-.91.39 1.67Z" fill="#E57E25"/>
    </g>
</svg>

<?xml version="1.0" encoding="UTF-8"?>
<svg xmlns="http://www.w3.org/2000/svg" xmlns:xlink="http://www.w3.org/1999/xlink" width="512" height="512" viewBox="-1 -1 60 60" version="1.1"><!-- Generator: Sketch 51.3 (57544) - http://www.bohemiancoding.com/sketch --><title>035 - Creative Thinking</title><desc>Created with Sketch.</desc><defs/><g id="Page-1" stroke="none" stroke-width="1" fill="none" fill-rule="evenodd"><g id="035---Creative-Thinking" fill-rule="nonzero"><path d="M54.79,25.57 C54.6566667,25.85 54.5266667,26.15 54.4,26.47 L49.71,37.79 L44.28,30 L47.01,23.4 C47.13,23.1 47.25,22.81 47.35,22.54 L54.79,25.57 Z" id="Shape" fill="#E64C3C"/><path d="M39.72,22.09 C39.62,24.09 39.41,26.09 39.11,28.09 L32.13,29.22 C31.9817552,26.6901574 32.0285602,24.1526547 32.27,21.63 L32.27,21.62 L39.72,22.09 Z" id="Shape" fill="#4482C3"/><path d="M22.79,9.85 C22.79,9.85 23.67,17.633 20.75,18.312 C17.83,18.991 15,11.68 15,11.68 L15.19,6.56 C16.02,6.86 16.112,3.428 17.042,3.208 C17.972,2.988 19.74,5.99 20.35,5.35 L22.79,9.85 Z" id="Shape" fill="#FDD7AD"/><path d="M28.05,32.34 L26,39 L25.44,38.52 L20.23,34 L15,11.68 C15,11.68 16.66,14.37 19.58,13.68 C22.5,12.99 22.79,9.85 22.79,9.85 L28.05,32.34 Z" id="Shape" fill="#E64C3C"/><path d="M25.44,38.52 L20.23,34 L15,11.68 C15,11.68 16.66,14.37 19.58,13.68 L25.44,38.52 Z" id="Shape" fill="#C03A2B"/><path d="M16.08,34.57 L16,47 L8.11,44.08 L0.13,24.83 C0.027358954,24.5847269 0.0266217124,24.3086756 0.127951217,24.0628578 C0.229280721,23.8170399 0.424333516,23.621696 0.67,23.52 L8.99,20.08 C9.50086414,19.8709636 10.0848377,20.1116856 10.3,20.62 L11.06,22.47 L11.44,23.39 L11.82,24.31 L12.59,26.16 L12.97,27.08 L13.36,28.01 L14.12,29.86 L14.5,30.78 L14.88,31.7 L16.04,34.48 L16.08,34.57 Z" id="Shape" fill="#F0C419"/><path d="M11.82,24.31 L7.21,26.23 C7.08547909,26.2773646 6.95322029,26.3011034 6.82,26.3 C6.34701477,26.2944392 5.94262111,25.958237 5.85078438,25.4942198 C5.75894764,25.0302026 6.00479082,24.5653077 6.44,24.38 L11.06,22.47 L11.44,23.39 L11.82,24.31 Z" id="Shape" fill="#B19046"/><path d="M13.36,28.01 L10.58,29.16 C10.4591897,29.2081669 10.3300437,29.231957 10.2,29.23 C9.72701477,29.2244392 9.32262111,28.888237 9.23078438,28.4242198 C9.13894764,27.9602026 9.38479082,27.4953077 9.82,27.31 L12.59,26.16 L12.97,27.08 L13.36,28.01 Z" id="Shape" fill="#B19046"/><path d="M14.88,31.7 L10.27,33.62 C10.1487042,33.6664617 10.0198897,33.6901906 9.89,33.69 C9.41516755,33.6890911 9.00644702,33.3543924 8.91192674,32.8890618 C8.81740645,32.4237311 9.06315247,31.9560939 9.5,31.77 L14.12,29.86 L14.5,30.78 L14.88,31.7 Z" id="Shape" fill="#B19046"/><path d="M58,51 C58,52.8565154 57.2625021,54.6369928 55.9497475,55.9497475 C54.6369928,57.2625021 52.8565154,58 51,58 L7,58 C3.13400675,58 4.4408921e-16,54.8659932 0,51 C-4.4408921e-16,47.1340068 3.13400675,44 7,44 C7.67727824,43.998101 8.35115423,44.095813 9,44.29 C9.07821851,40.3507256 11.3551884,36.7867845 14.8968071,35.0602454 C18.4384259,33.3337063 22.6485418,33.735193 25.8,36.1 C27.926459,30.4455521 33.7924343,27.1209655 39.736068,28.2016261 C45.6797017,29.2822868 50,34.4589232 50,40.5 C50.0025891,41.7440547 49.8171623,42.9813577 49.45,44.17 C49.9590108,44.0575207 50.47871,44.0005214 51,44 C52.8565154,44 54.6369928,44.7374979 55.9497475,46.0502525 C57.2625021,47.3630072 58,49.1434846 58,51 Z" id="Shape" fill="#E6E7E8" stroke="#BDC3C7" stroke-width="2"/><path d="M20.35,5.35 C19.7193862,6.0703034 18.8976853,6.59730149 17.98,6.87 C17.0393513,7.03104676 16.0723544,6.92360266 15.19,6.56 L15.38,1.28 C15.3999694,0.692207966 15.8086577,0.18952134 16.38,0.05 C16.47539,0.0301323716 16.572563,0.0200799942 16.67,0.02 C17.1542737,0.0186676795 17.6000262,0.283813581 17.83,0.71 L20.35,5.35 Z" id="Shape" fill="#2C2F38"/><path d="M39.72,22.09 C37.2268819,22.2158217 34.7275389,22.058145 32.27,21.62 C32.42,19.99 32.64,18.38 32.9,16.77 C35.15,16.91 37.42,17.05 39.73,17.19 C39.8166627,18.8222774 39.8133243,20.4580899 39.72,22.09 Z" id="Shape" fill="#95A5A5"/><path d="M32.9,16.77 C32.9,16.77 28.878,13.123 32.525,9.1 C35.557,5.756 36.762,3.473 36.685,1.309 C36.6768728,1.10624381 36.793562,0.919140295 36.9792186,0.837239462 C37.1648752,0.755338629 37.3817325,0.795300961 37.526,0.938 C39.989,3.349 45.545,10.079 39.671,17.188" id="Shape" fill="#805333"/><path d="M37.685,14.7 C37.3062279,14.7 36.9599648,14.4859976 36.7905728,14.1472136 C36.6211808,13.8084296 36.6577368,13.4030176 36.885,13.1 C37.7612783,11.8991326 38.1196669,10.3971421 37.88,8.93 C37.7784511,8.58170693 37.8735052,8.20573314 38.1283835,7.94755236 C38.3832617,7.68937158 38.7579807,7.58948531 39.1075522,7.68654207 C39.4571236,7.78359883 39.7267094,8.06237307 39.812,8.415 C40.2129189,10.4773188 39.730449,12.6132456 38.482,14.303 C38.2931553,14.552833 37.9981753,14.6997678 37.685,14.7 Z" id="Shape" fill="#603E26"/><path d="M24.78,52 C24.3792008,52.0000139 24.0171133,51.7607213 23.86,51.392 C23.536386,50.6360704 23.3696828,49.8222867 23.37,49 C23.3683452,46.189482 25.3178303,43.754431 28.0606066,43.1410858 C30.8033828,42.5277405 33.604374,43.9004803 34.8,46.444 C35.0352733,46.9438177 34.8208176,47.5397266 34.321,47.7749999 C33.8211823,48.0102732 33.2252733,47.7958177 32.99,47.296 C32.337698,45.8872558 30.9224013,44.989598 29.37,45 C27.160861,45 25.37,46.790861 25.37,49 C25.3697585,49.5528385 25.4820372,50.0999423 25.7,50.608 C25.8039737,50.8519982 25.8067566,51.1273072 25.7077364,51.3733573 C25.6087162,51.6194075 25.4160049,51.8160419 25.172,51.92 C25.0481479,51.9730935 24.9147522,52.0003171 24.78,52 Z" id="Shape" fill="#BDC3C7"/><path d="M40,49.33 C39.6082682,49.33007 39.2525687,49.101406 39.09,48.745 C38.6008636,47.6829732 37.5392526,47.001903 36.37,47 C35.6949437,46.9984982 35.0398065,47.2286433 34.514,47.652 C34.0821133,47.9963495 33.4528495,47.9253867 33.1085,47.4935 C32.7641505,47.0616133 32.8351133,46.4323495 33.267,46.088 C34.1461855,45.3806281 35.2415806,44.9965514 36.37,45 C38.3227138,45.0017705 40.0957188,46.1401647 40.91,47.915 C41.0512095,48.2245793 41.0253118,48.5847181 40.8412605,48.8709078 C40.6572092,49.1570975 40.3402638,49.3300608 40,49.33 Z" id="Shape" fill="#BDC3C7"/><path d="M14,44 C13.4477153,44 13,43.5522847 13,43 C13,39.322 16.533,38.1 16.684,38.051 C17.2086705,37.8748212 17.7768211,38.1573295 17.9529999,38.682 C18.1291788,39.2066705 17.8466705,39.7748211 17.322,39.951 C16.0007678,40.4016623 15.0832063,41.6065052 15,43 C15,43.5522847 14.5522847,44 14,44 Z" id="Shape" fill="#BDC3C7"/><path d="M31,37 C30.9177273,37.0003241 30.8357438,36.9902442 30.756,36.97 C30.2202929,36.8357826 29.8948099,36.292714 30.029,35.757 C30.7005774,32.9945409 33.1573242,31.0372901 36,31 C36.5522847,30.9986193 37.0011193,31.4452153 37.0025,31.9975 C37.0038807,32.5497847 36.5572847,32.9986193 36.005,33 C34.0827329,33.04782 32.4301708,34.376013 31.97,36.243 C31.8585409,36.6879311 31.4586794,36.9999879 31,37 Z" id="Shape" fill="#BDC3C7"/><path d="M57.94,20.11 C57.9725197,20.2705106 57.928124,20.4369944 57.82,20.56 C56.5415147,22.0521213 55.517786,23.7448211 54.79,25.57 C54.4365927,25.8334741 54.0360687,26.0269476 53.61,26.14 C52.5180452,26.428694 51.360047,26.333371 50.33,25.87 C50.32,25.87 50.32,25.86 50.31,25.86 C49.2437378,25.4621221 48.349224,24.7054978 47.78,23.72 C47.567443,23.3554577 47.4218157,22.9558294 47.35,22.54 C48.1265753,20.7187513 48.6027524,18.7836487 48.76,16.81 C48.7680462,16.6449128 48.8581212,16.4947877 49,16.41 L54.61,12.91 L56.06,12 L56.45,13.67 L57.94,20.11 Z" id="Shape" fill="#F0C419"/><path d="M56.06,12 L53.01,19.39 L53,19.39 L50.33,25.87 C50.32,25.87 50.32,25.86 50.31,25.86 C49.2437378,25.4621221 48.349224,24.7054978 47.78,23.72 C47.567443,23.3554577 47.4218157,22.9558294 47.35,22.54 C48.1265753,20.7187513 48.6027524,18.7836487 48.76,16.81 C48.7680462,16.6449128 48.8581212,16.4947877 49,16.41 L54.61,12.91 L56.06,12 Z" id="Shape" fill="#F3D55B"/><path d="M56.45,13.67 L54.3,18.85 C54.1465964,19.2234255 53.7837019,19.4679849 53.38,19.47 C53.2525364,19.4685342 53.1266837,19.4413228 53.01,19.39 L53,19.39 C52.6251399,19.2383616 52.3798405,18.874369 52.38,18.47 C52.3824296,18.3361835 52.4095511,18.2039664 52.46,18.08 L54.61,12.91 L56.06,12 L56.45,13.67 Z" id="Shape" fill="#E57E25"/></g></g></svg>
